gtk-icons/Papirus-GTK/48x48/apps/nylas.svg

<?xml version="1.0" encoding="UTF-8" standalone="no"?>
<!-- Created with Inkscape (http://www.inkscape.org/) -->
<svg id="svg2817" xmlns:rdf="http://www.w3.org/1999/02/22-rdf-syntax-ns#" xmlns="http://www.w3.org/2000/svg" height="48" width="48" version="1.0" xmlns:cc="http://creativecommons.org/ns#" xmlns:dc="http://purl.org/dc/elements/1.1/">
 <metadata id="metadata57">
  <rdf:RDF>
   <cc:Work rdf:about="">
    <dc:format>image/svg+xml</dc:format>
    <dc:type rdf:resource="http://purl.org/dc/dcmitype/StillImage"/>
    <dc:title/>
   </cc:Work>
  </rdf:RDF>
 </metadata>
 <defs id="defs2819">
  <clipPath id="clipPath4186" clipPathUnits="userSpaceOnUse">
   <circle id="path4188" style="color:#000000" cx="286" cy="26" r="10" fill="url(#linearGradient4190)"/>
  </clipPath>
 </defs>
 <circle id="path4230" style="color:#000000" cx="24" cy="24" r="20" fill="#37a0f2"/>
 <circle id="path4240" opacity="0" style="color:#000000" stroke-width=".45455" clip-path="url(#clipPath4186)" transform="matrix(2,0,0,2,-548,-28)" cy="26" cx="286" r="10"/>
 <circle id="path4242" opacity="0" style="color:#000000" stroke-width=".90909" clip-path="url(#clipPath4186)" transform="matrix(2,0,0,2,-548,-28)" cy="26" cx="286" r="10"/>
 <path id="rect3436" opacity=".2" d="m24 4c-11.079 0-19.998 8.92-19.998 20 0 0.16772-0.004 0.33329 0 0.5 0.2642-10.846 9.087-19.5 19.998-19.5s19.734 8.6536 19.998 19.5c0.004-0.16671 0-0.33228 0-0.5 0-11.08-8.919-20-19.998-20z" fill="#fff"/>
 <path id="circle4330" opacity=".3" d="m43.979 23.418a20 20 0 0 1 -19.979 19.582 20 20 0 0 1 -19.978 -19.418 20 20 0 0 0 -0.022 0.418 20 20 0 0 0 20 20 20 20 0 0 0 20 -20 20 20 0 0 0 -0.021 -0.582z" style="color:#000000"/>
 <g id="g4202" opacity=".2" fill-rule="evenodd" transform="translate(0,1)">
  <path id="path4204" d="m11 27 12 4v3l-12-4z"/>
  <path id="path4206" d="m11 21 12 4v3l-12-4z"/>
  <path id="path4208" d="m11 15 12 4v3l-12-4z"/>
  <path id="path4210" d="m25 25.5 12 4v3l-12-4z"/>
  <path id="path4212" d="m25 19.5 12 4v3l-12-4z"/>
  <path id="path4214" d="m25 13.5 12 4v3l-12-4z"/>
 </g>
 <g id="g4194" fill-rule="evenodd" fill="#fff">
  <path id="rect4142" d="m11 27 12 4v3l-12-4z"/>
  <path id="path4145" d="m11 21 12 4v3l-12-4z"/>
  <path id="path4147" d="m11 15 12 4v3l-12-4z"/>
  <path id="path4182" d="m25 25.5 12 4v3l-12-4z"/>
  <path id="path4184" d="m25 19.5 12 4v3l-12-4z"/>
  <path id="path4186" d="m25 13.5 12 4v3l-12-4z"/>
 </g>
</svg>

<?xml version="1.0" encoding="UTF-8" standalone="no"?>
<!-- Created with Inkscape (http://www.inkscape.org/) -->

<svg
   xmlns:dc="http://purl.org/dc/elements/1.1/"
   xmlns:cc="http://creativecommons.org/ns#"
   xmlns:rdf="http://www.w3.org/1999/02/22-rdf-syntax-ns#"
   xmlns:svg="http://www.w3.org/2000/svg"
   xmlns="http://www.w3.org/2000/svg"
   xmlns:sodipodi="http://sodipodi.sourceforge.net/DTD/sodipodi-0.dtd"
   xmlns:inkscape="http://www.inkscape.org/namespaces/inkscape"
   id="svg2817"
   height="48"
   width="48"
   version="1.0"
   inkscape:version="0.91 r13725"
   sodipodi:docname="nylas.svg">
  <sodipodi:namedview
     pagecolor="#ffffff"
     bordercolor="#666666"
     borderopacity="1"
     objecttolerance="10"
     gridtolerance="10"
     guidetolerance="10"
     inkscape:pageopacity="0"
     inkscape:pageshadow="2"
     inkscape:window-width="1600"
     inkscape:window-height="847"
     id="namedview14"
     showgrid="false"
     inkscape:zoom="1"
     inkscape:cx="23.911739"
     inkscape:cy="24"
     inkscape:window-x="0"
     inkscape:window-y="30"
     inkscape:window-maximized="1"
     inkscape:current-layer="svg2817" />
  <metadata
     id="metadata57">
    <rdf:RDF>
      <cc:Work
         rdf:about="">
        <dc:format>image/svg+xml</dc:format>
        <dc:type
           rdf:resource="http://purl.org/dc/dcmitype/StillImage" />
        <dc:title></dc:title>
      </cc:Work>
    </rdf:RDF>
  </metadata>
  <defs
     id="defs2819">
    <clipPath
       id="clipPath4186"
       clipPathUnits="userSpaceOnUse">
      <circle
         id="path4188"
         style="color:#000000"
         cx="286"
         cy="26"
         r="10"
         fill="url(#linearGradient4190)" />
    </clipPath>
  </defs>
  <circle
     id="path4230"
     style="color:#000000;fill:#37a0f2"
     cy="24"
     cx="24"
     r="20" />
  <circle
     id="path4240"
     style="color:#000000;opacity:0;stroke-width:0.45455"
     clip-path="url(#clipPath4186)"
     transform="matrix(2,0,0,2,-548,-28)"
     cy="26"
     cx="286"
     r="10" />
  <circle
     id="path4242"
     style="color:#000000;opacity:0;stroke-width:0.90908998"
     clip-path="url(#clipPath4186)"
     transform="matrix(2,0,0,2,-548,-28)"
     cy="26"
     cx="286"
     r="10" />
  <path
     style="opacity:0.2;fill:#ffffff"
     inkscape:connector-curvature="0"
     id="rect3436"
     d="M 24,4 C 12.921,4 4.002,12.92 4.002,24 c 0,0.16772 -0.004,0.33329 0,0.5 C 4.2662,13.654 13.089,5 24,5 c 10.911,0 19.734,8.6536 19.998,19.5 0.004,-0.16671 0,-0.33228 0,-0.5 C 43.998,12.92 35.079,4 24,4 Z" />
  <path
     inkscape:connector-curvature="0"
     id="circle4330"
     style="color:#000000;opacity:0.3"
     d="M 43.979,23.418 A 20,20 0 0 1 24,43 20,20 0 0 1 4.022,23.582 20,20 0 0 0 4,24 20,20 0 0 0 24,44 20,20 0 0 0 44,24 20,20 0 0 0 43.979,23.418 Z" />
  <g
     id="g4202"
     style="opacity:0.2;fill:#000000;fill-opacity:1"
     transform="translate(0,1)">
    <path
       style="fill:#000000;fill-opacity:1;fill-rule:evenodd;stroke:none;stroke-width:1px;stroke-linecap:butt;stroke-linejoin:miter;stroke-opacity:1"
       d="m 11,27 12,4 0,3 -12,-4 z"
       id="path4204"
       inkscape:connector-curvature="0"
       sodipodi:nodetypes="ccccc" />
    <path
       id="path4206"
       d="m 11,21 12,4 0,3 -12,-4 z"
       style="fill:#000000;fill-opacity:1;fill-rule:evenodd;stroke:none;stroke-width:1px;stroke-linecap:butt;stroke-linejoin:miter;stroke-opacity:1"
       inkscape:connector-curvature="0"
       sodipodi:nodetypes="ccccc" />
    <path
       inkscape:connector-curvature="0"
       style="fill:#000000;fill-opacity:1;fill-rule:evenodd;stroke:none;stroke-width:1px;stroke-linecap:butt;stroke-linejoin:miter;stroke-opacity:1"
       d="m 11,15 12,4 0,3 -12,-4 z"
       id="path4208"
       sodipodi:nodetypes="ccccc" />
    <path
       sodipodi:nodetypes="ccccc"
       inkscape:connector-curvature="0"
       id="path4210"
       d="m 25,25.5 12,4 0,3 -12,-4 z"
       style="fill:#000000;fill-opacity:1;fill-rule:evenodd;stroke:none;stroke-width:1px;stroke-linecap:butt;stroke-linejoin:miter;stroke-opacity:1" />
    <path
       sodipodi:nodetypes="ccccc"
       inkscape:connector-curvature="0"
       style="fill:#000000;fill-opacity:1;fill-rule:evenodd;stroke:none;stroke-width:1px;stroke-linecap:butt;stroke-linejoin:miter;stroke-opacity:1"
       d="m 25,19.5 12,4 0,3 -12,-4 z"
       id="path4212" />
    <path
       sodipodi:nodetypes="ccccc"
       id="path4214"
       d="m 25,13.5 12,4 0,3 -12,-4 z"
       style="fill:#000000;fill-opacity:1;fill-rule:evenodd;stroke:none;stroke-width:1px;stroke-linecap:butt;stroke-linejoin:miter;stroke-opacity:1"
       inkscape:connector-curvature="0" />
  </g>
  <g
     id="g4194">
    <path
       sodipodi:nodetypes="ccccc"
       inkscape:connector-curvature="0"
       id="rect4142"
       d="m 11,27 12,4 0,3 -12,-4 z"
       style="fill:#ffffff;fill-opacity:1;fill-rule:evenodd;stroke:none;stroke-width:1px;stroke-linecap:butt;stroke-linejoin:miter;stroke-opacity:1" />
    <path
       sodipodi:nodetypes="ccccc"
       inkscape:connector-curvature="0"
       style="fill:#ffffff;fill-opacity:1;fill-rule:evenodd;stroke:none;stroke-width:1px;stroke-linecap:butt;stroke-linejoin:miter;stroke-opacity:1"
       d="m 11,21 12,4 0,3 -12,-4 z"
       id="path4145" />
    <path
       sodipodi:nodetypes="ccccc"
       id="path4147"
       d="m 11,15 12,4 0,3 -12,-4 z"
       style="fill:#ffffff;fill-opacity:1;fill-rule:evenodd;stroke:none;stroke-width:1px;stroke-linecap:butt;stroke-linejoin:miter;stroke-opacity:1"
       inkscape:connector-curvature="0" />
    <path
       style="fill:#ffffff;fill-opacity:1;fill-rule:evenodd;stroke:none;stroke-width:1px;stroke-linecap:butt;stroke-linejoin:miter;stroke-opacity:1"
       d="m 25,25.5 12,4 0,3 -12,-4 z"
       id="path4182"
       inkscape:connector-curvature="0"
       sodipodi:nodetypes="ccccc" />
    <path
       id="path4184"
       d="m 25,19.5 12,4 0,3 -12,-4 z"
       style="fill:#ffffff;fill-opacity:1;fill-rule:evenodd;stroke:none;stroke-width:1px;stroke-linecap:butt;stroke-linejoin:miter;stroke-opacity:1"
       inkscape:connector-curvature="0"
       sodipodi:nodetypes="ccccc" />
    <path
       inkscape:connector-curvature="0"
       style="fill:#ffffff;fill-opacity:1;fill-rule:evenodd;stroke:none;stroke-width:1px;stroke-linecap:butt;stroke-linejoin:miter;stroke-opacity:1"
       d="m 25,13.5 12,4 0,3 -12,-4 z"
       id="path4186"
       sodipodi:nodetypes="ccccc" />
  </g>
</svg>
